!!!SOCIAL_FUNCTION:	songs connected with ceremonies
!!!PDT:	1929
!!!OTL: No_115_White_Blossoms_on_Baboquivari_Mountain.krn
!!!REG: Southwest
!!!LANG: Non-Tone
!!!LING_GROUP: Uto-Aztecan
**kern
*staff1
=1-
*clefF4
*k[b-e-a-d-g-]
*M2/4
4A-\
8e-\L
8e-\J
=2
4e-\
8B-\L
8B-\J
=3
4.e-\
16c\LL
16B-\JJ
=4||
*M3/8
8A-\L
8A-\
8F\J
=5
4d-\
8B-\
=6
8A-\
4F\
=7||
*M2/4
8A-\L
8A-\J
8A-\L
8F\J
=8
8F\
8r
4B-\
=9||
*M3/4
4d-\
4B-\
4A-\
=10
8B-\L
8B-\J
8B-\L
8A-\J
8F\L
8F\J
=11||
*M2/4
8A-\L
8A-\J
4A-\
=12
8A-\L
8A-\J
8A-\L
8F\J
=13
8F\
8r
4A-\
=14||
*M3/4
8B-\L
8B-\J
4.B-\
16A-\LL
16F\JJ
=15||
*M2/4
8A-\L
8A-\J
8A-\L
8F\J
=16||
*M3/4
8A-\L
8A-\J
8A-\L
8F\J
8E-\L
8D-\J
=17||
*M2/4
8A-\L
8A-\J
8A-\L
8A-\J
=18
4A-\
4A-\
==
*-
